src/lib/images/svgs/icon-microphone.svg

<?xml version="1.0" encoding="UTF-8"?> <svg xmlns="http://www.w3.org/2000/svg" xmlns:xlink="http://www.w3.org/1999/xlink" width="64px" height="64px" viewBox="0 0 64 64" version="1.1"> <g id="surface1"> <path style=" stroke:none;fill-rule:nonzero;fill:rgb(93.72549%,26.666667%,26.666667%);fill-opacity:1;" d="M 45.414062 4.355469 C 44.425781 3.371094 43.089844 2.820312 41.695312 2.820312 C 40.300781 2.820312 38.964844 3.371094 37.976562 4.355469 L 31.730469 10.605469 C 31.40625 10.925781 31.226562 11.363281 31.226562 11.816406 C 31.226562 12.269531 31.40625 12.703125 31.730469 13.027344 L 32.621094 13.917969 L 29.96875 16.566406 C 29.925781 16.515625 29.890625 16.460938 29.839844 16.410156 L 28.5625 15.128906 L 28.5625 15.132812 C 28.09375 14.652344 27.453125 14.382812 26.785156 14.386719 C 26.054688 14.382812 25.363281 14.699219 24.886719 15.25 C 24.46875 15.753906 24.257812 16.394531 24.296875 17.046875 C 24.335938 17.699219 24.617188 18.3125 25.089844 18.761719 L 26.289062 19.960938 C 26.339844 20.011719 26.394531 20.046875 26.445312 20.089844 L 25.195312 21.351562 C 24.445312 22.097656 24.019531 23.113281 24.019531 24.175781 C 24.019531 25.234375 24.445312 26.25 25.195312 27 L 25.492188 27.292969 L 22.046875 30.75 L 22.042969 30.75 C 19.878906 32.921875 18.660156 35.863281 18.652344 38.929688 L 18.652344 39.222656 C 18.175781 39.417969 17.769531 39.753906 17.484375 40.179688 C 17.199219 40.605469 17.046875 41.105469 17.046875 41.621094 C 17.046875 42.191406 17.238281 42.742188 17.589844 43.191406 L 16.21875 43.191406 C 15.449219 43.195312 14.707031 43.5 14.160156 44.046875 C 13.613281 44.59375 13.304688 45.335938 13.304688 46.105469 L 13.304688 47.871094 C 13.304688 48.007812 13.359375 48.136719 13.457031 48.234375 C 13.550781 48.328125 13.679688 48.382812 13.816406 48.382812 L 46.304688 48.382812 C 46.441406 48.382812 46.570312 48.328125 46.667969 48.234375 C 46.761719 48.136719 46.816406 48.007812 46.816406 47.871094 L 46.816406 46.105469 C 46.816406 45.335938 46.507812 44.59375 45.960938 44.046875 C 45.414062 43.5 44.675781 43.195312 43.902344 43.191406 L 42.535156 43.191406 C 42.882812 42.742188 43.074219 42.191406 43.078125 41.621094 C 43.078125 40.933594 42.804688 40.273438 42.316406 39.785156 C 41.828125 39.300781 41.171875 39.023438 40.480469 39.023438 L 31.914062 39.023438 L 31.90625 37.214844 L 34.96875 34.140625 L 35.148438 34.320312 C 35.347656 34.519531 35.671875 34.519531 35.871094 34.320312 L 40.074219 30.125 L 40.074219 30.121094 C 40.53125 29.65625 40.789062 29.03125 40.789062 28.382812 C 40.789062 27.730469 40.53125 27.105469 40.074219 26.640625 L 37.101562 23.660156 C 37.054688 23.613281 37 23.578125 36.949219 23.535156 L 39.59375 20.890625 L 40.484375 21.78125 C 40.808594 22.101562 41.242188 22.28125 41.695312 22.28125 C 42.148438 22.28125 42.585938 22.101562 42.90625 21.78125 L 49.152344 15.535156 C 50.136719 14.546875 50.691406 13.210938 50.691406 11.816406 C 50.691406 10.421875 50.136719 9.082031 49.152344 8.097656 Z M 25.816406 18.039062 C 25.53125 17.769531 25.359375 17.40625 25.328125 17.015625 C 25.300781 16.625 25.414062 16.234375 25.65625 15.925781 C 25.941406 15.601562 26.351562 15.414062 26.78125 15.414062 C 27.175781 15.410156 27.554688 15.570312 27.828125 15.851562 L 29.113281 17.136719 C 29.472656 17.515625 29.605469 18.054688 29.46875 18.558594 C 29.328125 19.058594 28.9375 19.453125 28.433594 19.59375 C 27.929688 19.730469 27.390625 19.597656 27.011719 19.238281 Z M 22.765625 31.472656 L 26.214844 28.015625 L 26.511719 28.316406 C 27.261719 29.070312 28.277344 29.492188 29.339844 29.492188 L 29.351562 29.492188 C 30.40625 29.492188 31.417969 29.070312 32.15625 28.316406 L 33.421875 27.0625 C 33.464844 27.113281 33.503906 27.171875 33.550781 27.214844 L 34.71875 28.386719 L 32.332031 30.785156 C 32.132812 30.984375 32.132812 31.308594 32.332031 31.507812 L 32.503906 31.679688 L 29.445312 34.746094 C 28.789062 35.386719 28.425781 36.265625 28.429688 37.179688 L 28.429688 39.023438 L 19.671875 39.023438 L 19.671875 38.929688 C 19.679688 36.132812 20.792969 33.453125 22.765625 31.472656 Z M 45.792969 46.105469 L 45.792969 47.359375 L 14.328125 47.359375 L 14.328125 46.105469 C 14.332031 45.605469 14.53125 45.125 14.882812 44.769531 C 15.238281 44.417969 15.71875 44.214844 16.21875 44.214844 L 43.902344 44.214844 C 44.402344 44.21875 44.882812 44.417969 45.238281 44.769531 C 45.59375 45.125 45.792969 45.605469 45.792969 46.105469 Z M 42.054688 41.621094 C 42.054688 42.035156 41.890625 42.4375 41.59375 42.730469 C 41.300781 43.027344 40.898438 43.191406 40.484375 43.191406 L 19.640625 43.191406 C 19.078125 43.191406 18.558594 42.890625 18.277344 42.40625 C 17.996094 41.917969 17.996094 41.320312 18.277344 40.835938 C 18.558594 40.347656 19.078125 40.046875 19.640625 40.046875 L 40.480469 40.046875 C 40.898438 40.046875 41.296875 40.214844 41.59375 40.507812 C 41.886719 40.804688 42.050781 41.203125 42.054688 41.621094 Z M 31.179688 36.488281 C 30.996094 36.671875 30.890625 36.921875 30.890625 37.179688 L 30.890625 39.023438 L 29.453125 39.023438 L 29.453125 37.179688 C 29.449219 36.539062 29.707031 35.921875 30.164062 35.472656 L 33.226562 32.402344 L 34.242188 33.417969 Z M 39.347656 27.367188 C 39.617188 27.636719 39.765625 28.003906 39.765625 28.386719 C 39.765625 28.765625 39.617188 29.132812 39.347656 29.402344 L 35.507812 33.238281 L 33.417969 31.148438 L 35.808594 28.75 C 36.007812 28.550781 36.007812 28.226562 35.808594 28.027344 L 34.273438 26.496094 L 34.273438 26.492188 C 33.898438 26.117188 33.753906 25.570312 33.890625 25.058594 C 34.027344 24.542969 34.429688 24.144531 34.941406 24.007812 C 35.457031 23.867188 36.003906 24.015625 36.378906 24.390625 Z M 36.003906 23.035156 C 35.429688 22.863281 34.8125 22.902344 34.265625 23.152344 C 33.722656 23.398438 33.28125 23.835938 33.035156 24.382812 C 32.789062 24.929688 32.746094 25.546875 32.917969 26.117188 L 31.433594 27.59375 C 30.882812 28.152344 30.132812 28.464844 29.347656 28.464844 L 29.339844 28.464844 C 28.550781 28.464844 27.792969 28.152344 27.238281 27.589844 L 25.921875 26.273438 C 25.359375 25.71875 25.046875 24.960938 25.046875 24.175781 C 25.046875 23.386719 25.359375 22.628906 25.921875 22.074219 L 27.390625 20.59375 C 27.964844 20.761719 28.582031 20.71875 29.125 20.472656 C 29.667969 20.222656 30.105469 19.789062 30.351562 19.242188 C 30.601562 18.699219 30.640625 18.082031 30.472656 17.511719 L 33.339844 14.644531 L 38.871094 20.171875 Z M 48.429688 14.8125 L 42.179688 21.0625 C 41.910156 21.328125 41.476562 21.328125 41.207031 21.0625 L 39.964844 19.816406 C 39.960938 19.8125 39.960938 19.808594 39.957031 19.804688 L 33.703125 13.554688 C 33.703125 13.550781 33.695312 13.546875 33.691406 13.546875 L 32.449219 12.300781 C 32.320312 12.171875 32.246094 11.996094 32.246094 11.816406 C 32.246094 11.632812 32.320312 11.457031 32.449219 11.328125 L 38.699219 5.082031 C 39.492188 4.289062 40.570312 3.84375 41.695312 3.84375 C 42.816406 3.84375 43.894531 4.289062 44.6875 5.082031 L 48.429688 8.820312 C 49.222656 9.617188 49.667969 10.691406 49.667969 11.816406 C 49.667969 12.9375 49.222656 14.015625 48.429688 14.8125 Z M 48.429688 14.8125 "/> </g> </svg>

<svg xmlns="http://www.w3.org/2000/svg" width="64" height="64"><path d="M45.414 4.355a5.266 5.266 0 0 0-3.719-1.535c-1.394 0-2.73.551-3.718 1.535l-6.247 6.25a1.71 1.71 0 0 0 0 2.422l.891.891-2.652 2.648c-.043-.05-.078-.105-.13-.156l-1.276-1.281v.004a2.463 2.463 0 0 0-1.778-.746 2.49 2.49 0 0 0-1.898.863 2.575 2.575 0 0 0 .203 3.512l1.2 1.199c.05.05.105.086.155.129l-1.25 1.262a3.985 3.985 0 0 0-1.175 2.824c0 1.058.425 2.074 1.175 2.824l.297.293-3.445 3.457h-.004a11.633 11.633 0 0 0-3.39 8.18v.293a2.593 2.593 0 0 0-1.606 2.398c0 .57.191 1.121.543 1.57h-1.371a2.933 2.933 0 0 0-2.059.856 2.916 2.916 0 0 0-.855 2.058v1.766a.512.512 0 0 0 .511.512h32.489a.525.525 0 0 0 .363-.149.525.525 0 0 0 .148-.363v-1.766c0-.77-.308-1.511-.855-2.058a2.926 2.926 0 0 0-2.059-.856h-1.367c.348-.449.54-1 .543-1.57 0-.687-.273-1.348-.762-1.836a2.606 2.606 0 0 0-1.836-.762h-8.566l-.008-1.808 3.063-3.074.18.18c.199.199.523.199.722 0l4.203-4.196v-.004c.457-.465.715-1.09.715-1.738 0-.653-.258-1.278-.715-1.742l-2.972-2.98c-.047-.048-.102-.083-.153-.126l2.645-2.644.89.89a1.715 1.715 0 0 0 2.422 0l6.246-6.246a5.263 5.263 0 0 0 0-7.438ZM25.816 18.04a1.576 1.576 0 0 1-.16-2.113 1.5 1.5 0 0 1 1.125-.512c.395-.004.774.156 1.047.438l1.285 1.285c.36.379.492.918.356 1.422-.14.5-.532.894-1.035 1.035a1.496 1.496 0 0 1-1.422-.356Zm-3.05 13.434 3.449-3.457.297.3a3.985 3.985 0 0 0 2.828 1.176h.012a3.924 3.924 0 0 0 2.804-1.176l1.266-1.253c.043.05.082.109.129.152l1.168 1.172-2.387 2.398c-.2.2-.2.524 0 .723l.172.172-3.059 3.066a3.378 3.378 0 0 0-1.015 2.434v1.843h-8.758v-.093a10.61 10.61 0 0 1 3.094-7.457Zm23.027 14.632v1.254H14.328v-1.254c.004-.5.203-.98.555-1.335a1.906 1.906 0 0 1 1.336-.555h27.683c.5.004.98.203 1.336.555.356.355.555.835.555 1.335Zm-3.738-4.484c0 .414-.164.816-.461 1.11a1.56 1.56 0 0 1-1.11.46H19.641c-.563 0-1.082-.3-1.364-.785a1.573 1.573 0 0 1 1.363-2.36h20.84c.418 0 .817.169 1.114.462.293.297.457.695.46 1.113ZM31.18 36.488a.983.983 0 0 0-.29.692v1.843h-1.437V37.18a2.377 2.377 0 0 1 .711-1.707l3.063-3.07 1.015 1.015Zm8.168-9.12c.27.269.418.636.418 1.019 0 .379-.149.746-.418 1.015l-3.84 3.836-2.09-2.09 2.39-2.398c.2-.2.2-.523 0-.723l-1.535-1.53v-.005a1.485 1.485 0 0 1 .668-2.484 1.48 1.48 0 0 1 1.438.383Zm-3.344-4.333a2.473 2.473 0 0 0-1.738.117 2.468 2.468 0 0 0-1.23 1.23 2.485 2.485 0 0 0-.118 1.735l-1.484 1.477c-.551.558-1.301.87-2.086.87h-.008c-.79 0-1.547-.312-2.102-.874l-1.316-1.317a2.947 2.947 0 0 1-.875-2.097c0-.79.312-1.547.875-2.102l1.469-1.48a2.475 2.475 0 0 0 2.96-1.352c.25-.543.29-1.16.122-1.73l2.867-2.867 5.531 5.527Zm12.426-8.223-6.25 6.25a.693.693 0 0 1-.973 0l-1.242-1.246c-.004-.003-.004-.007-.008-.011l-6.254-6.25c0-.004-.008-.008-.012-.008L32.45 12.3a.69.69 0 0 1-.203-.485c0-.183.074-.359.203-.488l6.25-6.246a4.236 4.236 0 0 1 5.989 0L48.43 8.82a4.243 4.243 0 0 1 0 5.992Zm0 0" style="stroke:none;fill-rule:nonzero;fill:#ef4444;fill-opacity:1"/></svg>
